static/layers.svg

<svg xmlns="http://www.w3.org/2000/svg" width="800" height="800" fill="none" viewBox="0 0 16 16"><path fill="currentColor" d="M1 5V3l7-3 7 3v2L8 8zM8 16l-7-3v-2l7 3 7-3v2z"/><path fill="currentColor" d="m1 9 7 3 7-3V7l-7 3-7-3z"/></svg>

<?xml version="1.0" encoding="utf-8"?><!-- Uploaded to: SVG Repo, www.svgrepo.com, Generator: SVG Repo Mixer Tools -->
<svg width="800px" height="800px" viewBox="0 0 16 16" fill="none" xmlns="http://www.w3.org/2000/svg">
<path d="M1 5V3L8 0L15 3V5L8 8L1 5Z" fill="#000000"/>
<path d="M8 16L1 13V11L8 14L15 11V13L8 16Z" fill="#000000"/>
<path d="M1 9L8 12L15 9V7L8 10L1 7V9Z" fill="#000000"/>
</svg>
